X:1
T: The Elk's Festival
C:
R:Reel
Q: 232
K:D
M:4/4
L:1/8
|:FG|AF Ad fe dc|BG Be gf ed|cA ce ag fe|fc dB A2 FG|
AF Ad fe dc|BG Be g2 ag|fb fd Bg ec|d2 d2 d2:|
|:fg|((3aaa) fd Ad fd|((3ggg) ec Ac ec|fd ge af bg|ec dB A2 fg|
((3aaa) fd Ad fd|((3ggg) ec A2 ag|fd AF Eg ec|d2 d2 d2:|
